svg/youtube.svg

<svg xmlns="http://www.w3.org/2000/svg" viewBox="0 0 54 64" enable-background="new 0 0 54 64"><style type="text/css">.st0{fill:#343434;}</style><path class="st0" d="M32.6 42c-.5 0-1.1.2-1.6.8v10.5c.5.5 1.1.8 1.6.8.9 0 1.4-.8 1.4-2.3v-7.3c0-1.7-.5-2.5-1.4-2.5zM44.5 41.3c-1.1 0-1.6.8-1.6 2.5v1.7h3.3v-1.7c0-1.6-.6-2.5-1.7-2.5zM53.5 34.2s-.5-3.7-2.1-5.4c-2.1-2.2-4.4-2.2-5.4-2.3-7.7-.5-19-.5-19-.5s-11.3 0-18.9.5c-1.1.1-3.3.1-5.4 2.3-1.6 1.6-2.1 5.4-2.1 5.4s-.6 4.4-.6 8.8v4.1c0 4.4.5 8.7.5 8.7s.5 3.7 2.1 5.4c2.1 2.2 4.8 2.1 6 2.3 4.4.4 18.4.5 18.4.5s11.3 0 18.9-.6c1.1-.1 3.4-.1 5.4-2.3 1.6-1.6 2.1-5.4 2.1-5.4s.5-4.4.5-8.7v-4c.1-4.4-.4-8.8-.4-8.8zm-41.6 22.5h-3.6v-20.9h-3.9v-3.4h11.4v3.4h-3.9v20.9zm12.9 0h-3.3v-2c-1.3 1.5-2.5 2.3-3.7 2.3-1.1 0-1.8-.4-2.1-1.4-.2-.6-.3-1.4-.3-2.7v-14.3h3.3v14.700000000000001c.1.5.3.8.8.8.7 0 1.3-.5 2.1-1.5v-14h3.3v18.1zm12.5-5.4c0 1.7-.1 2.9-.3 3.7-.4 1.4-1.3 2-2.6 2-1.2 0-2.3-.6-3.4-2v1.8h-3.3v-24.4h3.3v8c1.1-1.3 2.2-2 3.4-2 1.3 0 2.2.7 2.6 2 .2.7.3 1.9.3 3.7v7.2zm12.1-3h-6.5v3.2c0 1.7.5 2.5 1.7 2.5.8 0 1.3-.4 1.5-1.3 0-.2.1-.9.1-2.2h3.3v.5c0 1.1 0 1.8-.1 2.1-.1.7-.4 1.4-.8 2-.9 1.3-2.3 2-4 2-1.7 0-3-.6-4-1.9-.7-.9-1-2.3-1-4.3v-6.4c0-1.9.3-3.4 1-4.3.9-1.2 2.3-1.9 3.9-1.9s2.9.6 3.9 1.9c.7.9 1 2.3 1 4.3v3.8zM14.4 14.3v9.7h3.5v-9.7l4.1-14.3h-3.5l-2.4 9.4-2.4-9.4h-3.7l2.2 6.7c1.1 3.3 1.8 5.9 2.2 7.6zM22 18.1c0 1.9.3 3.3 1.1 4.1.9 1.2 2.2 1.8 3.9 1.8s3-.6 3.9-1.8c.7-.9 1.1-2.3 1.1-4.1v-6.1c0-1.9-.3-3.2-1.1-4.1-.9-1.3-2.2-1.9-3.9-1.9s-3 .6-3.9 1.8c-.7.9-1.1 2.3-1.1 4.1v6.2zm3.4-6.8c0-1.6.5-2.4 1.6-2.4s1.6.8 1.6 2.4v7.4c0 1.6-.5 2.4-1.6 2.4s-1.6-.8-1.6-2.4v-7.4zM37.3 24c1.1 0 2.3-.7 3.6-2.2v1.9h3.1v-17.7h-3.1v13.6c-.7 1-1.3 1.5-2 1.5-.4 0-.7-.3-.7-.8v-14.3h-3.2v14c0 1.3.1 2.1.3 2.6.3 1 1 1.4 2 1.4z"/></svg>

<?xml version="1.0" encoding="utf-8"?>
<!-- Generator: Adobe Illustrator 21.0.0, SVG Export Plug-In . SVG Version: 6.00 Build 0)  -->
<svg version="1.1" id="Layer_1" xmlns="http://www.w3.org/2000/svg" xmlns:xlink="http://www.w3.org/1999/xlink" x="0px" y="0px"
	 viewBox="0 0 54 64" style="enable-background:new 0 0 54 64;" xml:space="preserve">
<style type="text/css">
	.st0{fill:#343434;}
</style>
<g>
	<path class="st0" d="M32.6,42c-0.5,0-1.1,0.2-1.6,0.8v10.5c0.5,0.5,1.1,0.8,1.6,0.8c0.9,0,1.4-0.8,1.4-2.3v-7.3
		C34,42.8,33.5,42,32.6,42z"/>
	<path class="st0" d="M44.5,41.3c-1.1,0-1.6,0.8-1.6,2.5v1.7h3.3v-1.7C46.2,42.2,45.6,41.3,44.5,41.3z"/>
	<path class="st0" d="M53.5,34.2c0,0-0.5-3.7-2.1-5.4c-2.1-2.2-4.4-2.2-5.4-2.3C38.3,26,27,26,27,26h0c0,0-11.3,0-18.9,0.5
		c-1.1,0.1-3.3,0.1-5.4,2.3c-1.6,1.6-2.1,5.4-2.1,5.4S0,38.6,0,43v4.1c0,4.4,0.5,8.7,0.5,8.7s0.5,3.7,2.1,5.4c2.1,2.2,4.8,2.1,6,2.3
		C13,63.9,27,64,27,64s11.3,0,18.9-0.6c1.1-0.1,3.4-0.1,5.4-2.3c1.6-1.6,2.1-5.4,2.1-5.4s0.5-4.4,0.5-8.7V43
		C54,38.6,53.5,34.2,53.5,34.2z M11.9,56.7H8.3V35.8H4.4v-3.4h11.4v3.4h-3.9V56.7z M24.8,56.7h-3.3v-2C20.2,56.2,19,57,17.8,57
		c-1.1,0-1.8-0.4-2.1-1.4c-0.2-0.6-0.3-1.4-0.3-2.7V38.6h3.3v13.4c0,0.8,0,1.2,0,1.3c0.1,0.5,0.3,0.8,0.8,0.8c0.7,0,1.3-0.5,2.1-1.5
		V38.6h3.3V56.7z M37.3,51.3c0,1.7-0.1,2.9-0.3,3.7c-0.4,1.4-1.3,2-2.6,2c-1.2,0-2.3-0.6-3.4-2v1.8h-3.3V32.4h3.3v8
		c1.1-1.3,2.2-2,3.4-2c1.3,0,2.2,0.7,2.6,2c0.2,0.7,0.3,1.9,0.3,3.7V51.3z M49.4,48.3h-6.5v3.2c0,1.7,0.5,2.5,1.7,2.5
		c0.8,0,1.3-0.4,1.5-1.3c0-0.2,0.1-0.9,0.1-2.2h3.3v0.5c0,1.1,0,1.8-0.1,2.1c-0.1,0.7-0.4,1.4-0.8,2c-0.9,1.3-2.3,2-4,2
		c-1.7,0-3-0.6-4-1.9c-0.7-0.9-1-2.3-1-4.3v-6.4c0-1.9,0.3-3.4,1-4.3c0.9-1.2,2.3-1.9,3.9-1.9c1.6,0,2.9,0.6,3.9,1.9
		c0.7,0.9,1,2.3,1,4.3V48.3z"/>
	<path class="st0" d="M14.4,14.3V24h3.5v-9.7L22,0h-3.5l-2.4,9.4L13.7,0H10c0.7,2.2,1.5,4.5,2.2,6.7C13.3,10,14,12.6,14.4,14.3z"/>
	<path class="st0" d="M22,18.1c0,1.9,0.3,3.3,1.1,4.1C24,23.4,25.3,24,27,24s3-0.6,3.9-1.8c0.7-0.9,1.1-2.3,1.1-4.1v-6.1
		c0-1.9-0.3-3.2-1.1-4.1C30,6.6,28.7,6,27,6s-3,0.6-3.9,1.8c-0.7,0.9-1.1,2.3-1.1,4.1V18.1z M25.4,11.3c0-1.6,0.5-2.4,1.6-2.4
		c1.1,0,1.6,0.8,1.6,2.4v7.4c0,1.6-0.5,2.4-1.6,2.4c-1.1,0-1.6-0.8-1.6-2.4V11.3z"/>
	<path class="st0" d="M37.3,24c1.1,0,2.3-0.7,3.6-2.2v1.9H44V6h-3.1v13.6c-0.7,1-1.3,1.5-2,1.5c-0.4,0-0.7-0.3-0.7-0.8
		c0-0.1,0-0.5,0-1.3V6H35v14c0,1.3,0.1,2.1,0.3,2.6C35.6,23.6,36.3,24,37.3,24z"/>
</g>
</svg>
